Sources/FrostedUI/Resources/Icons.xcassets/facebook20.imageset/facebook-20.svg

<svg width="20" height="20" viewBox="0 0 20 20" fill="none" xmlns="http://www.w3.org/2000/svg" data-fui-icon="true">
  <path
    d="M10 0.916992C15.0163 0.91719 19.0838 4.98374 19.084 10C19.0838 14.6438 15.5982 18.4726 11.1006 19.0176L10.2607 19.1201V11.7969H12.6387L12.8311 10.75H10.2568V9.09961C10.2569 8.35685 10.3967 7.63763 10.915 7.12793C11.4302 6.62144 12.1528 6.48633 12.9004 6.48633C12.9731 6.48633 13.0448 6.48768 13.1143 6.48828V5.58691C12.7635 5.54082 12.3442 5.50297 12.0537 5.50293C10.7667 5.50293 9.98447 5.80739 9.5127 6.28906C9.03773 6.7741 8.7373 7.58205 8.7373 8.90332V10.75H7.01758V11.7969H8.7373V19.0479L7.80664 18.8164C3.85024 17.8348 0.917146 14.2609 0.916992 10C0.917168 4.98373 4.98373 0.917168 10 0.916992ZM10 2.41699C5.81215 2.41717 2.41717 5.81215 2.41699 10C2.41713 13.2123 4.41536 15.9589 7.2373 17.0635V13.2969H5.51758V9.25H7.2373V8.90332C7.2373 7.38804 7.57791 6.12007 8.44043 5.23926C9.30615 4.35521 10.5576 4.00293 12.0537 4.00293C12.6248 4.00298 13.6056 4.10987 14.0635 4.23633L14.6143 4.38867V8.0957L13.7881 8.0127C13.632 7.99694 13.3212 7.98633 12.9004 7.98633C12.2814 7.98633 12.0567 8.10981 11.9668 8.19824C11.8801 8.2837 11.7569 8.49658 11.7568 9.09961V9.25H14.6309L14.4688 10.1357L14.002 12.6816L13.8887 13.2969H11.7607V17.376C15.0995 16.5813 17.5838 13.5809 17.584 10C17.5838 5.81217 14.1878 2.41719 10 2.41699Z"
    fill="currentColor"
  />
</svg>

<svg xmlns="http://www.w3.org/2000/svg" width="20" height="20" fill="none" data-fui-icon="true" viewBox="0 0 20 20"><path fill="currentColor" d="M10 .917a9.084 9.084 0 0 1 1.1 18.1l-.84.103v-7.323h2.379l.192-1.047h-2.574V9.1c0-.743.14-1.462.658-1.972.515-.507 1.238-.642 1.985-.642l.214.002v-.901a9 9 0 0 0-1.06-.084c-1.287 0-2.07.304-2.541.786-.475.485-.776 1.293-.776 2.614v1.847h-1.72v1.047h1.72v7.25l-.93-.23A9.083 9.083 0 0 1 10 .916m0 1.5a7.583 7.583 0 0 0-2.763 14.647v-3.767h-1.72V9.25h1.72v-.347c0-1.515.34-2.783 1.203-3.664.866-.884 2.118-1.236 3.614-1.236.57 0 1.552.107 2.01.233l.55.153v3.707l-.826-.083a11 11 0 0 0-.888-.027c-.619 0-.843.124-.933.212-.087.086-.21.299-.21.902v.15h2.874l-.162.886-.467 2.546-.113.615H11.76v4.079A7.59 7.59 0 0 0 17.584 10 7.584 7.584 0 0 0 10 2.417"/></svg>
